X:123
T:F. Deitzman's Quickstep
T:Stop March
S:American Veteran Fifer #123
C:To F. Deitzman Portland Oregon Co.A.17th Mo. Vol. Inf. By A.F. Hopkins Fife Major
M:2/4
L:1/8
Q:1/8=180
K:D
%%MIDI program 72
%%MIDI transpose 8
%%MIDI ratio 3 1
((3A/B/c/) | dd/d/ c/d/e/c/ | (d/e/)A/c/ df/f/ | (f/a)a/ a/b/g/e/ | (f/a/)g/e/ b/g/e/c/ |
d/d(d/ c/)z/e/c/ | (d/e/)A/c/ df/f/ | f/a/g/e/ b/g/e/c/ | d z z :|
|: ((3A/B/c/) | d2- d/A/d/f/ | ba- ad/f/ | (f/a)a/ a/b/g/e/ | f/a/g/e/ f/d/c/A/ |
d2- d/A/d/(f/ | b)a- ad/f/ | (f/a)a/ (a/b/)g/e/ | d z z :|



